X:1
T:Borrow, 11.11.11.11
T:Borrow, 11.11.11.11
T:William Henry Borrow, 1916
T:Public Domain Courtesy of the Cyber Hymnal™
C:William Henry Borrow, 1916
Z:Public Domain
Z:Courtesy of the Cyber Hymnal™
%%score ( 1 2 ) ( 3 4 )
L:1/8
Q:1/4=117
M:4/4
K:G
V:1 treble 
V:2 treble 
V:3 bass 
V:4 bass 
V:1
 [GB]2 [GB]2 [Dd]2 [Gd]2 | [DG]4 [DB]4 | [GB]2 [GB]2 (BA) G2 | [FA]8 | [GB]2 [GB]2 [Dd]2 [=Fd]2 | %5
 [EG]4 [Ec]4 | [GB]2 (dc) [DB]2 [DA]2 | [B,G]8 | [DG]3 [DG] [DF]2 [Fc]2 | [Fc]4 [GB]4 | %10
 [GB]2 [GB]2 (BA) G2 | [FA]8 | [Gd]3 [Gd] [DG]2 [DF]2 | [CE]4 [Ec]4 | [GB]2 [GB]2 (AB) [FA]2 | %15
 G8 |] %16
V:2
 x8 | x8 | x4 E2 G2 | x8 | x8 | x8 | x2 E2 x4 | x8 | x8 | x8 | x4 E2 G2 | x8 | x8 | x8 | x4 E2 x2 | %15
 G8 |] %16
V:3
 [G,D]2 [G,D]2 [B,,G,]2 [B,,G,]2 | [G,,B,]4 [G,D]4 | G,2 [G,D]2 [A,^C]2 [A,,C]2 | [D,D]8 | %4
 [G,D]2 [G,D]2 [B,,G,]2 [B,,G,]2 | [C,C]4 [A,,C]4 | [B,,G,]2 [C,G,]2 [D,G,]2 [D,F,]2 | [G,,G,]8 | %8
 B,3 B, [A,C]2 [D,A,]2 | [D,D]4 [G,D]4 | G,2 [G,D]2 [A,^C]2 [A,,C]2 | [D,D]8 | %12
 [B,,D]3 [B,,G,] [B,,G,]2 [B,,G,]2 | [C,G,]4 [A,,A,]4 | [G,,D]2 [E,E]2 [C,E]2 [D,C]2 | [G,,B,]8 |] %16
V:4
 x8 | x8 | G,2 x6 | x8 | x8 | x8 | x8 | x8 | B,3 B, x4 | x8 | G,2 x6 | x8 | x8 | x8 | x8 | x8 |] %16

